X: 28165
T: Mrs Martha Knowles
R: reel
M: 4/4
K: Aminor
e/|:A2 e2 d>ee>d|{f}e2 d>B g>dd<e|(3AAA B>G {B}A2B>d|{f}e2 B<g AAA>e:|
|:A>aa>g a>ee<a|g2 e<g d2 e<g|B>GG>A {c}B2 A>B|e>dB<g AAA>e:|
|:A>ee>d e>AA<e|d<gBd G>dd<e|A2 B>G {B}A2Bd|{f}e2 B<g AAA>e:|
|:a>ee>a e2 a(e|e)ae>a g>ed>B|A2 B>G A2B>d|1 {f}e2 B>g AAA>e:|2 e2 B>g AA A z||

